icons/4_Outdated/Drupal v1.svg

<svg width="1024" height="1024" viewBox="0 0 1024 1024" fill="none" xmlns="http://www.w3.org/2000/svg">
<g clip-path="url(#clip0_3_533)">
<path d="M512 1024C794.77 1024 1024 794.77 1024 512C1024 229.23 794.77 0 512 0C229.23 0 0 229.23 0 512C0 794.77 229.23 1024 512 1024Z" fill="#728DBE"/>
<path d="M623.6 332.999C597.4 316.699 572.8 310.299 548 293.999C532.7 283.599 511.5 258.999 493.7 237.699C490.3 271.799 479.9 285.599 468 295.499C442.9 315.199 427.1 321.199 405.3 332.999C387 342.299 287.8 401.599 287.8 528.999C287.8 656.399 395 750.299 514 750.299C633 750.299 736.2 663.899 736.2 532.999C736.2 402.099 639.4 342.899 623.6 332.999ZM626.4 703.799C623.9 706.299 601.3 722.099 574.5 724.499C547.8 726.899 511.8 728.399 490.1 708.699C486.7 705.299 487.6 700.299 490.1 698.299C492.6 696.299 494.6 694.899 497.5 694.899C500.4 694.899 500 694.899 501.5 695.899C511.4 703.799 526.2 710.299 557.8 710.299C589.4 710.299 611.6 701.299 621.5 693.999C626 690.599 628 693.499 628.4 695.399C628.9 697.299 629.8 700.299 626.4 703.799ZM540 658.899C545.4 653.999 554.4 646.099 562.7 642.599C571.1 639.099 575.5 639.599 583.4 639.599C591.3 639.599 599.7 640.099 605.7 644.099C611.7 648.099 615 656.899 617 661.899C619 666.799 617 669.799 613.1 671.799C609.7 673.799 609.2 672.799 605.7 666.399C602.2 659.999 599.2 653.599 582 653.599C564.8 653.599 559.3 659.499 550.9 666.399C542.5 673.299 539.6 675.699 536.5 671.799C533.5 667.799 534.6 663.799 540 658.899ZM671 662.799C653.2 661.399 617.7 606.099 595 604.999C566.4 603.999 504.2 664.799 455.3 664.799C425.7 664.799 416.8 660.299 406.9 653.899C391.9 643.599 384.5 627.799 385 605.999C385.5 567.499 421.5 531.499 467 530.999C524.8 530.499 564.8 588.299 593.9 587.699C618.6 587.199 666 538.899 689.2 538.899C713.9 538.899 720.8 564.599 720.8 579.799C720.8 595.099 715.9 622.699 704 639.999C692.2 657.399 684.8 663.699 671 662.799Z" fill="white"/>
</g>
<defs>
<clipPath id="clip0_3_533">
<rect width="1024" height="1024" fill="white"/>
</clipPath>
</defs>
</svg>

<svg width="1024" height="1024" fill="none" xmlns="http://www.w3.org/2000/svg"><g clip-path="url(#a)"><path d="M512 1024c282.77 0 512-229.23 512-512S794.77 0 512 0 0 229.23 0 512s229.23 512 512 512Z" fill="#728DBE"/><path d="M623.6 332.999c-26.2-16.3-50.8-22.7-75.6-39-15.3-10.4-36.5-35-54.3-56.3-3.4 34.1-13.8 47.9-25.7 57.8-25.1 19.7-40.9 25.7-62.7 37.5-18.3 9.3-117.5 68.6-117.5 196s107.2 221.3 226.2 221.3c119 0 222.2-86.4 222.2-217.3s-96.8-190.1-112.6-200Zm2.8 370.8c-2.5 2.5-25.1 18.3-51.9 20.7-26.7 2.4-62.7 3.9-84.4-15.8-3.4-3.4-2.5-8.4 0-10.4s4.5-3.4 7.4-3.4c2.9 0 2.5 0 4 1 9.9 7.9 24.7 14.4 56.3 14.4 31.6 0 53.8-9 63.7-16.3 4.5-3.4 6.5-.5 6.9 1.4.5 1.9 1.4 4.9-2 8.4Zm-86.4-44.9c5.4-4.9 14.4-12.8 22.7-16.3 8.4-3.5 12.8-3 20.7-3 7.9 0 16.3.5 22.3 4.5s9.3 12.8 11.3 17.8c2 4.9 0 7.9-3.9 9.9-3.4 2-3.9 1-7.4-5.4-3.5-6.4-6.5-12.8-23.7-12.8s-22.7 5.9-31.1 12.8c-8.4 6.9-11.3 9.3-14.4 5.4-3-4-1.9-8 3.5-12.9Zm131 3.9c-17.8-1.4-53.3-56.7-76-57.8-28.6-1-90.8 59.8-139.7 59.8-29.6 0-38.5-4.5-48.4-10.9-15-10.3-22.4-26.1-21.9-47.9.5-38.5 36.5-74.5 82-75 57.8-.5 97.8 57.3 126.9 56.7 24.7-.5 72.1-48.8 95.3-48.8 24.7 0 31.6 25.7 31.6 40.9 0 15.3-4.9 42.9-16.8 60.2-11.8 17.4-19.2 23.7-33 22.8Z" fill="#fff"/></g><defs><clipPath id="a"><path fill="#fff" d="M0 0h1024v1024H0z"/></clipPath></defs></svg>
